X: 484
M: 2/4
L: 1/8
K: D
V: 1
!segno!|:\
d2d>d | Tc2B2 | TA>GA>F | G>AB>c |\
d2d>d | Tc2B2 | TA>GA>F | G2Hz2 :|
d2e>f | g2g2 | a>gTf>e | d2D2 |\
d2e>f | g>a Tf>g | a>gTf>e | d2z2 !segno!|]
V: 2 clef=bass middle=d
|:\

